X:29
T:Branle de Bourgogne
R:Branle double
C:Jacques Moderne 
O:France
Z:Transcrit et/ou corrig? par Michel BELLON - 2006-11-29
Z:Pour toute observation mailto:galouvielle@free.fr
M:C
L:1/4
Q:1/4=200
K:C
d2 BG|G A/2B/2 cc|d3/2 c/2 B/2A/2B/2c/2|d2Bc|d2 BG|G A/2B/2
cc|dccB|c2c2::d2 dd|d2de|f2ed|c2Bc:|
<end>
<start>
